X:116
M:2/4
L:1/8
K:G
| GE DE | GA Bd | eB dB | AG E2 | 
| ed B/c/d | ed d2 | eg ed | BA GE | 

